dist/img/card/card-icon2.svg

<svg width="10" height="10" viewBox="0 0 10 10" fill="none" xmlns="http://www.w3.org/2000/svg">
<path d="M9.99523 7.89194C10.0164 8.05438 9.96695 8.19562 9.84703 8.31566L8.43905 9.71391C8.37553 9.78454 8.29262 9.84462 8.19029 9.894C8.08795 9.94345 7.9874 9.97523 7.88863 9.98934C7.88157 9.98934 7.86035 9.99115 7.82504 9.99469C7.78981 9.9982 7.74393 10 7.68747 10C7.55334 10 7.33631 9.97705 7.03636 9.93113C6.73642 9.88521 6.36944 9.77219 5.93544 9.59214C5.50133 9.41206 5.00909 9.1419 4.45861 8.78176C3.90814 8.42165 3.32235 7.92726 2.70129 7.29872C2.20726 6.81143 1.79792 6.34533 1.47328 5.90043C1.14863 5.4555 0.887502 5.04413 0.689891 4.66631C0.492263 4.28848 0.344055 3.94597 0.245249 3.63876C0.146444 3.33156 0.0793973 3.06673 0.0441096 2.84427C0.00882192 2.62182 -0.00529315 2.44703 0.00176438 2.31991C0.00882192 2.19279 0.0123507 2.12217 0.0123507 2.10805C0.0264658 2.00918 0.0582247 1.90854 0.107627 1.80614C0.15703 1.70374 0.217019 1.62076 0.287595 1.5572L1.69557 0.148305C1.79438 0.0494349 1.9073 0 2.03433 0C2.12608 0 2.20724 0.026483 2.27782 0.079449C2.34839 0.132415 2.40838 0.19774 2.45779 0.275423L3.59052 2.42584C3.65404 2.53884 3.67168 2.66242 3.64345 2.79661C3.61522 2.93079 3.55523 3.04378 3.46349 3.13559L2.94476 3.65465C2.93064 3.66878 2.91829 3.69173 2.9077 3.72351C2.89712 3.75529 2.89182 3.78177 2.89182 3.80296C2.92005 3.95126 2.98357 4.12076 3.08238 4.31143C3.16707 4.48092 3.29763 4.68749 3.47407 4.93114C3.65051 5.17478 3.90105 5.45548 4.2257 5.77328C4.54329 6.09817 4.82559 6.35061 5.0726 6.53073C5.31956 6.71074 5.52607 6.84321 5.69192 6.92795C5.85777 7.0127 5.98481 7.0639 6.07301 7.0815L6.2053 7.108C6.21942 7.108 6.24241 7.10269 6.27413 7.09211C6.30589 7.0815 6.32883 7.06916 6.34296 7.05502L6.94636 6.44062C7.07347 6.32764 7.22161 6.27114 7.391 6.27114C7.51102 6.27114 7.60624 6.29231 7.67682 6.3347H7.68738L9.73052 7.54233C9.87878 7.6342 9.96699 7.75069 9.99523 7.89194Z" fill="#BFC0C4"/>
</svg>

<svg width="10" height="10" fill="none" xmlns="http://www.w3.org/2000/svg"><path d="M9.995 7.892a.484.484 0 01-.148.424L8.439 9.714a.792.792 0 01-.249.18 1.028 1.028 0 01-.503.106 4.86 4.86 0 01-.65-.069c-.3-.046-.668-.159-1.102-.339a9.239 9.239 0 01-1.476-.81c-.55-.36-1.137-.855-1.758-1.483A11.605 11.605 0 011.473 5.9 9.964 9.964 0 01.69 4.666 6.65 6.65 0 01.245 3.64a5.454 5.454 0 01-.2-.795 2.625 2.625 0 01-.033-.736c.014-.099.046-.2.096-.302a.794.794 0 01.18-.249L1.696.148A.466.466 0 012.034 0a.39.39 0 01.244.08c.07.052.13.118.18.195l1.133 2.15a.516.516 0 01.052.372.66.66 0 01-.18.339l-.518.519a.177.177 0 00-.037.069.262.262 0 00-.016.079c.028.148.092.318.19.508.085.17.216.376.392.62.177.244.427.524.752.842.317.325.6.578.847.758.247.18.453.312.619.397.166.085.293.136.381.154l.132.026a.252.252 0 00.07-.016.177.177 0 00.068-.037l.603-.614a.648.648 0 01.445-.17c.12 0 .215.021.286.064h.01l2.044 1.207a.533.533 0 01.264.35z" fill="#BFC0C4"/></svg>
